exported-svg/send.svg

<svg height="24" viewBox="0 0 24 24" width="24" xmlns="http://www.w3.org/2000/svg"><path d="m21.3244022 1.03268836c.014483-.00542144.0291669-.01014801.0440003-.01417972.3718027-.1032155.7172838.24226558.6140683.6140683-.0040317.01483337-.0087583.02951732-.0141797.04400031l-6.9963468 19.98956235c-.1495969.4274195-.7449181.451707-.928835.037894l-3.9218964-8.824267-8.82426704-3.92189648c-.41381301-.18391689-.38952547-.77923813.03789402-.92883495zm-1.0201223 2.37111796-9.2078913 9.20789128 3.3483241 7.5337292zm-9.914998 8.50078448 9.2078912-9.20789126-16.74162046 5.85956717z"/></svg>

<?xml version="1.0" encoding="UTF-8"?>
<svg width="24px" height="24px" viewBox="0 0 24 24" version="1.1" xmlns="http://www.w3.org/2000/svg" xmlns:xlink="http://www.w3.org/1999/xlink">
    <!-- Generator: Sketch 55.2 (78181) - https://sketchapp.com -->
    <title>send</title>
    <desc>Created with Sketch.</desc>
    <g id="send" stroke="none" stroke-width="1" fill="none" fill-rule="evenodd">
        <path d="M21.3244022,1.03268836 C21.3388852,1.02726692 21.3535691,1.02254035 21.3684025,1.01850864 C21.7402052,0.915293141 22.0856863,1.26077422 21.9824708,1.63257694 C21.9784391,1.64741031 21.9737125,1.66209426 21.9682911,1.67657725 L14.9719443,21.6661396 C14.8223474,22.0935591 14.2270262,22.1178466 14.0431093,21.7040336 L10.1212129,12.8797666 L1.29694586,8.95787012 C0.883132849,8.77395323 0.907420388,8.17863199 1.33483988,8.02903517 L21.3244022,1.03268836 Z M20.3042799,3.40380632 L11.0963886,12.6116976 L14.4447127,20.1454268 L20.3042799,3.40380632 Z M10.3892819,11.9045908 L19.5971731,2.69669954 L2.85555264,8.55626671 L10.3892819,11.9045908 Z" id="Combined-Shape" fill="#000000" fill-rule="nonzero"></path>
    </g>
</svg>
